X: 26840
T: Mimi And The New Generation
R: polka
M: 2/4
K: Amixolydian
|:cA AB|cd ef/g/|ad e/f/e/d/|ce g>f|
eA AB|cd ef/g/|ad e/f/e/d/|1 cA AB:|2 cA A2||
|:af ge|fd e/f/e/d/|cA AB|cd ef/g/|
af ge|fd ef/g/|ad e/f/e/d/|1 cA A2:|2 cA AB||

